examples/assets/gralig-logo.svg

<svg width="373" height="115" viewBox="0 0 373 115" fill="none" xmlns="http://www.w3.org/2000/svg">
<path d="M145.784 32.68C147.441 32.68 148.784 34.0231 148.784 35.68V89.576C148.784 97.0427 146.171 102.755 140.944 106.712C135.717 110.744 128.699 112.76 119.888 112.76C117.125 112.76 113.392 112.163 108.688 110.968C105.205 110.139 101.082 108.796 98.1157 107.428C96.6168 106.736 96.2485 104.896 97.1749 103.53L100.619 98.4511C101.457 97.2148 103.074 96.7915 104.44 97.3977C106.887 98.4845 109.162 99.3119 111.264 99.88C114.027 100.627 116.789 101.037 119.552 101.112C123.957 101.037 127.467 99.9547 130.08 97.864C132.768 95.7733 134.112 92.9733 134.112 89.464V84.872C130.379 87.1867 126.384 88.344 122.128 88.344C113.691 88.344 107.008 85.8053 102.08 80.728C97.2267 75.576 94.8 68.632 94.8 59.896C94.8 54.2213 95.8827 49.2187 98.048 44.888C100.288 40.5573 103.499 37.1973 107.68 34.808C111.861 32.4187 116.827 31.224 122.576 31.224C125.04 31.224 127.653 31.8213 130.416 33.016C133.253 34.2107 135.755 35.7413 137.92 37.608L140.279 34.0291C140.834 33.1869 141.775 32.68 142.784 32.68H145.784ZM122.688 75.912C124.629 75.912 126.496 75.5387 128.288 74.792C129.771 74.1988 131.301 73.3699 132.879 72.3053C133.667 71.7736 134.112 70.8714 134.112 69.9208V49.6394C134.112 48.7569 133.73 47.911 133.028 47.3755C131.474 46.1886 129.968 45.322 128.512 44.776C126.72 44.0293 124.779 43.656 122.688 43.656C118.731 43.656 115.595 45.1867 113.28 48.248C110.965 51.2347 109.808 55.1173 109.808 59.896C109.808 64.6747 110.928 68.5573 113.168 71.544C115.483 74.456 118.656 75.912 122.688 75.912Z" fill="#C3C8CB"/>
<path d="M170.376 53.848C173.512 51.0853 176.872 48.808 180.456 47.016C182.429 46.05 184.227 45.3443 185.852 44.8991C187.735 44.3833 189.182 42.4938 188.708 40.6004L187.296 34.9524C186.963 33.6169 185.754 32.6545 184.399 32.895C182.291 33.269 179.969 34.1306 177.432 35.48C173.923 37.3467 170.862 39.4373 168.248 41.752L164.278 34.2733C163.758 33.2929 162.738 32.68 161.628 32.68H158.816C157.159 32.68 155.816 34.0231 155.816 35.68V84C155.816 85.6568 157.159 87 158.816 87H167.376C169.033 87 170.376 85.6569 170.376 84V53.848Z" fill="#C3C8CB"/>
<path d="M196.161 45.0252C196.716 46.7383 198.648 47.5792 200.356 47.0094C201.713 46.557 203.201 46.1485 204.821 45.784C207.808 45.0373 210.533 44.664 212.997 44.664C215.685 44.664 217.776 45.448 219.269 47.016C220.837 48.5093 221.659 50.6373 221.733 53.4H211.093C204.821 53.4 199.819 54.9307 196.085 57.992C192.352 60.9787 190.485 65.2347 190.485 70.76C190.485 76.136 192.128 80.4293 195.413 83.64C198.699 86.776 203.589 88.344 210.085 88.344C215.088 88.344 219.867 85.9547 224.421 81.176L226.111 85.1689C226.58 86.2788 227.668 87 228.874 87H233.405C235.062 87 236.405 85.6569 236.405 84V51.272C236.405 47.464 235.323 44.0293 233.157 40.968C231.067 37.9067 228.229 35.5173 224.645 33.8C221.061 32.0827 217.104 31.224 212.773 31.224C210.235 31.224 206.837 31.7467 202.581 32.792C199.579 33.4767 197.153 34.2356 195.303 35.0689C194.069 35.6246 193.575 37.0455 193.992 38.3331L196.161 45.0252ZM202.917 70.76C202.917 68.6693 203.627 66.8773 205.045 65.384C206.539 63.8907 208.48 63.144 210.869 63.144H218.845C220.502 63.144 221.845 64.4871 221.845 66.144V70.1712C221.845 70.9776 221.526 71.7576 220.922 72.2917C217.518 75.3026 213.831 76.808 209.861 76.808C207.845 76.808 206.165 76.2107 204.821 75.016C203.552 73.8213 202.917 72.4027 202.917 70.76Z" fill="#C3C8CB"/>
<path d="M254.837 87C256.494 87 257.837 85.6569 257.837 84V11.1947C257.837 9.43728 256.334 8.05623 254.583 8.20554L246.135 8.92591C244.582 9.05829 243.389 10.357 243.389 11.9151V84C243.389 85.6569 244.733 87 246.389 87H254.837Z" fill="#C3C8CB"/>
<path d="M274.422 24.952C276.736 24.952 278.678 24.168 280.246 22.6C281.888 21.032 282.71 19.0907 282.71 16.776C282.71 14.4613 281.888 12.52 280.246 10.952C278.678 9.38399 276.736 8.59999 274.422 8.59999C272.182 8.59999 270.278 9.38399 268.71 10.952C267.142 12.52 266.358 14.4613 266.358 16.776C266.358 19.0907 267.142 21.032 268.71 22.6C270.278 24.168 272.182 24.952 274.422 24.952ZM278.814 87C280.471 87 281.814 85.6569 281.814 84V35.68C281.814 34.0231 280.471 32.68 278.814 32.68H270.254C268.597 32.68 267.254 34.0231 267.254 35.68V84C267.254 85.6568 268.597 87 270.254 87H278.814Z" fill="#C3C8CB"/>
<path d="M339.784 32.68C341.441 32.68 342.784 34.0231 342.784 35.68V89.576C342.784 97.0427 340.171 102.755 334.944 106.712C329.717 110.744 322.699 112.76 313.888 112.76C311.125 112.76 307.392 112.163 302.688 110.968C299.205 110.139 295.082 108.796 292.116 107.428C290.617 106.736 290.248 104.896 291.175 103.53L294.619 98.4511C295.457 97.2148 297.074 96.7915 298.44 97.3977C300.887 98.4845 303.162 99.3119 305.264 99.88C308.027 100.627 310.789 101.037 313.552 101.112C317.957 101.037 321.467 99.9547 324.08 97.864C326.768 95.7733 328.112 92.9733 328.112 89.464V84.872C324.379 87.1867 320.384 88.344 316.128 88.344C307.691 88.344 301.008 85.8053 296.08 80.728C291.227 75.576 288.8 68.632 288.8 59.896C288.8 54.2213 289.883 49.2187 292.048 44.888C294.288 40.5573 297.499 37.1973 301.68 34.808C305.861 32.4187 310.827 31.224 316.576 31.224C319.04 31.224 321.653 31.8213 324.416 33.016C327.253 34.2107 329.755 35.7413 331.92 37.608L334.279 34.0291C334.834 33.1869 335.775 32.68 336.784 32.68H339.784ZM316.688 75.912C318.629 75.912 320.496 75.5387 322.288 74.792C323.771 74.1988 325.301 73.3699 326.879 72.3053C327.667 71.7736 328.112 70.8714 328.112 69.9208V49.6394C328.112 48.7569 327.73 47.911 327.028 47.3755C325.474 46.1886 323.968 45.322 322.512 44.776C320.72 44.0293 318.779 43.656 316.688 43.656C312.731 43.656 309.595 45.1867 307.28 48.248C304.965 51.2347 303.808 55.1173 303.808 59.896C303.808 64.6747 304.928 68.5573 307.168 71.544C309.483 74.456 312.656 75.912 316.688 75.912Z" fill="#C3C8CB"/>
<rect x="63.9723" y="50.2739" width="12" height="40" rx="2" transform="rotate(38.203 63.9723 50.2739)" fill="#8C959B"/>
<rect x="84.5059" y="79.1594" width="12" height="20" rx="2" transform="rotate(38.203 84.5059 79.1594)" fill="#C3C8CB"/>
<rect x="53.1902" y="36.486" width="12" height="50" rx="2" transform="rotate(38.203 53.1902 36.486)" fill="#727C83"/>
<rect x="74.2391" y="64.7167" width="12" height="30" rx="2" transform="rotate(38.203 74.2391 64.7167)" fill="#A8AEB3"/>
<rect x="37.2028" y="29.3121" width="12" height="40" rx="2" transform="rotate(38.203 37.2028 29.3121)" fill="#5F676D"/>
</svg>

<svg width="373" height="115" fill="none" xmlns="http://www.w3.org/2000/svg"><path d="M145.784 32.68a3 3 0 013 3v53.896c0 7.467-2.613 13.179-7.84 17.136-5.227 4.032-12.245 6.048-21.056 6.048-2.763 0-6.496-.597-11.2-1.792-3.483-.829-7.606-2.172-10.572-3.54-1.5-.692-1.867-2.532-.941-3.898l3.444-5.079c.838-1.236 2.455-1.66 3.821-1.053 2.447 1.087 4.722 1.914 6.824 2.482a35.33 35.33 0 008.288 1.232c4.405-.075 7.915-1.157 10.528-3.248 2.688-2.09 4.032-4.89 4.032-8.4v-4.592c-3.733 2.315-7.728 3.472-11.984 3.472-8.437 0-15.12-2.539-20.048-7.616-4.853-5.152-7.28-12.096-7.28-20.832 0-5.675 1.083-10.677 3.248-15.008 2.24-4.33 5.451-7.69 9.632-10.08 4.181-2.39 9.147-3.584 14.896-3.584 2.464 0 5.077.597 7.84 1.792 2.837 1.195 5.339 2.725 7.504 4.592l2.359-3.579a3 3 0 012.505-1.349h3zm-23.096 43.232a14.42 14.42 0 005.6-1.12c1.483-.593 3.013-1.422 4.591-2.487.788-.531 1.233-1.434 1.233-2.384V49.639c0-.882-.382-1.728-1.084-2.264-1.554-1.186-3.06-2.053-4.516-2.599-1.792-.747-3.733-1.12-5.824-1.12-3.957 0-7.093 1.53-9.408 4.592-2.315 2.987-3.472 6.87-3.472 11.648 0 4.779 1.12 8.661 3.36 11.648 2.315 2.912 5.488 4.368 9.52 4.368zM170.376 53.848c3.136-2.763 6.496-5.04 10.08-6.832 1.973-.966 3.771-1.672 5.396-2.117 1.883-.516 3.33-2.405 2.856-4.299l-1.412-5.648c-.333-1.335-1.542-2.297-2.897-2.057-2.108.374-4.43 1.236-6.967 2.585-3.509 1.867-6.57 3.957-9.184 6.272l-3.97-7.479a3 3 0 00-2.65-1.593h-2.812a3 3 0 00-3 3V84a3 3 0 003 3h8.56a3 3 0 003-3V53.848zM196.161 45.025c.555 1.713 2.487 2.554 4.195 1.984a46.255 46.255 0 014.465-1.225c2.987-.747 5.712-1.12 8.176-1.12 2.688 0 4.779.784 6.272 2.352 1.568 1.493 2.39 3.621 2.464 6.384h-10.64c-6.272 0-11.274 1.53-15.008 4.592-3.733 2.987-5.6 7.243-5.6 12.768 0 5.376 1.643 9.67 4.928 12.88 3.286 3.136 8.176 4.704 14.672 4.704 5.003 0 9.782-2.39 14.336-7.168l1.69 3.993A2.999 2.999 0 00228.874 87h4.531a3 3 0 003-3V51.272c0-3.808-1.082-7.243-3.248-10.304-2.09-3.061-4.928-5.45-8.512-7.168-3.584-1.717-7.541-2.576-11.872-2.576-2.538 0-5.936.523-10.192 1.568-3.002.685-5.428 1.444-7.278 2.277-1.234.556-1.728 1.976-1.311 3.264l2.169 6.692zm6.756 25.735c0-2.09.71-3.883 2.128-5.376 1.494-1.493 3.435-2.24 5.824-2.24h7.976a3 3 0 013 3v4.027c0 .807-.319 1.587-.923 2.12-3.404 3.012-7.091 4.517-11.061 4.517-2.016 0-3.696-.597-5.04-1.792-1.269-1.195-1.904-2.613-1.904-4.256zM254.837 87a3 3 0 003-3V11.195a3 3 0 00-3.254-2.99l-8.448.72a3 3 0 00-2.746 2.99V84a3 3 0 003 3h8.448zM274.422 24.952c2.314 0 4.256-.784 5.824-2.352 1.642-1.568 2.464-3.51 2.464-5.824 0-2.315-.822-4.256-2.464-5.824-1.568-1.568-3.51-2.352-5.824-2.352-2.24 0-4.144.784-5.712 2.352-1.568 1.568-2.352 3.51-2.352 5.824 0 2.315.784 4.256 2.352 5.824 1.568 1.568 3.472 2.352 5.712 2.352zM278.814 87a3 3 0 003-3V35.68a3 3 0 00-3-3h-8.56a3 3 0 00-3 3V84a3 3 0 003 3h8.56zM339.784 32.68a3 3 0 013 3v53.896c0 7.467-2.613 13.179-7.84 17.136-5.227 4.032-12.245 6.048-21.056 6.048-2.763 0-6.496-.597-11.2-1.792-3.483-.829-7.606-2.172-10.572-3.54-1.499-.692-1.868-2.532-.941-3.898l3.444-5.079c.838-1.236 2.455-1.66 3.821-1.053 2.447 1.087 4.722 1.914 6.824 2.482a35.33 35.33 0 008.288 1.232c4.405-.075 7.915-1.157 10.528-3.248 2.688-2.09 4.032-4.89 4.032-8.4v-4.592c-3.733 2.315-7.728 3.472-11.984 3.472-8.437 0-15.12-2.539-20.048-7.616-4.853-5.152-7.28-12.096-7.28-20.832 0-5.675 1.083-10.677 3.248-15.008 2.24-4.33 5.451-7.69 9.632-10.08 4.181-2.39 9.147-3.584 14.896-3.584 2.464 0 5.077.597 7.84 1.792 2.837 1.195 5.339 2.725 7.504 4.592l2.359-3.579a3 3 0 012.505-1.349h3zm-23.096 43.232a14.42 14.42 0 005.6-1.12c1.483-.593 3.013-1.422 4.591-2.487.788-.531 1.233-1.434 1.233-2.384V49.639c0-.882-.382-1.728-1.084-2.264-1.554-1.186-3.06-2.053-4.516-2.599-1.792-.747-3.733-1.12-5.824-1.12-3.957 0-7.093 1.53-9.408 4.592-2.315 2.987-3.472 6.87-3.472 11.648 0 4.779 1.12 8.661 3.36 11.648 2.315 2.912 5.488 4.368 9.52 4.368z" fill="#C3C8CB"/><rect x="63.972" y="50.274" width="12" height="40" rx="2" transform="rotate(38.203 63.972 50.274)" fill="#8C959B"/><rect x="84.506" y="79.159" width="12" height="20" rx="2" transform="rotate(38.203 84.506 79.16)" fill="#C3C8CB"/><rect x="53.19" y="36.486" width="12" height="50" rx="2" transform="rotate(38.203 53.19 36.486)" fill="#727C83"/><rect x="74.239" y="64.717" width="12" height="30" rx="2" transform="rotate(38.203 74.24 64.717)" fill="#A8AEB3"/><rect x="37.203" y="29.312" width="12" height="40" rx="2" transform="rotate(38.203 37.203 29.312)" fill="#5F676D"/></svg>
